; generated by Slic3r 1.31.6-prusa3d-win64 on 2016-12-25 at 12:43:28

; external perimeters extrusion width = 0.45mm
; perimeters extrusion width = 0.45mm
; infill extrusion width = 0.45mm
; solid infill extrusion width = 0.45mm
; top infill extrusion width = 0.45mm

M107
M115 U3.0.9 ; tell printer latest fw version
M83  ; extruder relative mode
M104 S215 ; set extruder temp
M140 S55 ; set bed temp
M190 S55 ; wait for bed temp
M109 S215 ; wait for extruder temp
G28 W ; home all without mesh bed level
G80 ; mesh bed leveling
G1 Y-3.0 F1000.0 ; go outside pritn area
G1 X60.0 E9.0  F1000.0 ; intro line
G1 X100.0 E12.5  F1000.0 ; intro line
G21 ; set units to millimeters
G90 ; use absolute coordinates
M83 ; use relative distances for extrusion
G1 E-0.80000 F2100.00000
G1 Z0.200 F7200.000
G1 X76.025 Y44.887 F7200.000
G1 E0.80000 F2100.00000
M204 S1000
G1 F2100
G1 X76.754 Y44.568 E0.02496
G1 X128.152 Y31.771 E1.66075
G1 X128.723 Y31.700 E0.01805
G1 X130.303 Y31.698 E0.04954
G1 X130.935 Y31.783 E0.01998
G1 X177.615 Y44.582 E1.51763
G1 X178.772 Y45.306 E0.04278
G1 X179.225 Y46.077 E0.02808
G1 X198.640 Y100.609 E1.81492
G1 X198.574 Y102.369 E0.05522
G1 X177.582 Y149.758 E1.62511
G1 X176.624 Y150.839 E0.04526
G1 X132.132 Y177.313 E1.62331
G1 X131.449 Y177.672 E0.02420
G1 X130.832 Y177.904 E0.02066
G1 X129.966 Y178.099 E0.02785
G1 X129.160 Y178.154 E0.02531
G1 X128.385 Y178.099 E0.02438
G1 X127.676 Y177.952 E0.02269
G1 X126.896 Y177.672 E0.02599
G1 X126.213 Y177.314 E0.02417
G1 X81.612 Y150.840 E1.62623
G1 X80.806 Y150.051 E0.03538
G1 X51.579 Y103.002 E1.73663
G1 X51.222 Y101.686 E0.04278
G1 X51.416 Y100.805 E0.02829
G1 X75.147 Y45.931 E1.87451
G1 X75.986 Y44.933 E0.04090
G1 F5760
G1 X76.754 Y44.568 E-0.29445
G1 F5760
G1 X78.058 Y44.243 E-0.46555
G1 E-0.04000 F2100.00000
G1 X128.267 Y170.034 F7200.000
G1 E0.80000 F2100.00000
G1 F840
G1 X128.721 Y169.916 E0.01471
G1 X129.172 Y169.875 E0.01422
G1 X129.633 Y169.917 E0.01449
G1 X130.077 Y170.035 E0.01443
G1 X130.497 Y170.231 E0.01453
G1 X130.878 Y170.498 E0.01456
G1 X131.204 Y170.824 E0.01447
G1 X131.469 Y171.202 E0.01448
G1 X131.664 Y171.622 E0.01452
G1 X131.783 Y172.067 E0.01443
G1 X131.824 Y172.527 E0.01449
G1 X131.783 Y172.989 E0.01455
G1 X131.664 Y173.434 E0.01443
G1 X131.469 Y173.854 E0.01452
G1 X131.204 Y174.231 E0.01444
G1 X130.878 Y174.560 E0.01455
G1 X130.495 Y174.826 E0.01461
G1 X130.077 Y175.019 E0.01441
G1 X129.634 Y175.139 E0.01440
G1 X129.172 Y175.180 E0.01454
G1 X128.711 Y175.139 E0.01453
G1 X128.266 Y175.019 E0.01446
G1 X127.847 Y174.826 E0.01446
G1 X127.467 Y174.560 E0.01456
G1 X127.140 Y174.231 E0.01452
G1 X126.876 Y173.854 E0.01444
G1 X126.681 Y173.435 E0.01447
G1 X126.560 Y172.989 E0.01450
G1 X126.521 Y172.527 E0.01455
G1 X126.560 Y172.067 E0.01448
G1 X126.681 Y171.620 E0.01450
G1 X126.876 Y171.202 E0.01447
G1 X127.141 Y170.824 E0.01448
G1 X127.467 Y170.498 E0.01444
G1 X127.844 Y170.231 E0.01451
G1 X128.212 Y170.060 E0.01272
G1 X128.395 Y170.390 F7200.000
G1 F840
G1 X128.785 Y170.289 E0.01265
G1 X129.172 Y170.254 E0.01218
G1 X129.567 Y170.289 E0.01242
G1 X129.948 Y170.391 E0.01237
G1 X130.308 Y170.558 E0.01244
G1 X130.634 Y170.787 E0.01250
G1 X130.914 Y171.067 E0.01241
G1 X131.141 Y171.391 E0.01241
G1 X131.309 Y171.751 E0.01244
G1 X131.410 Y172.132 E0.01237
G1 X131.445 Y172.527 E0.01242
G1 X131.410 Y172.923 E0.01248
G1 X131.309 Y173.305 E0.01237
G1 X131.141 Y173.664 E0.01244
G1 X130.914 Y173.988 E0.01240
G1 X130.634 Y174.270 E0.01247
G1 X130.307 Y174.498 E0.01249
G1 X129.948 Y174.663 E0.01238
G1 X129.568 Y174.766 E0.01237
G1 X129.172 Y174.802 E0.01244
G1 X128.777 Y174.766 E0.01243
G1 X128.395 Y174.663 E0.01243
G1 X128.035 Y174.498 E0.01240
G1 X127.711 Y174.270 E0.01244
G1 X127.431 Y173.988 E0.01246
G1 X127.204 Y173.664 E0.01239
G1 X127.036 Y173.305 E0.01242
G1 X126.933 Y172.923 E0.01241
G1 X126.900 Y172.527 E0.01248
G1 X126.933 Y172.132 E0.01241
G1 X127.036 Y171.750 E0.01241
G1 X127.204 Y171.391 E0.01242
G1 X127.431 Y171.067 E0.01241
G1 X127.711 Y170.788 E0.01240
G1 X128.035 Y170.559 E0.01244
G1 X128.341 Y170.416 E0.01059
G1 X128.466 Y169.997 F7200.000
G1 X128.422 Y169.974 F7200.000
G1 F840
G1 X128.800 Y169.892 E0.01214
G1 X129.162 Y169.866 E0.01136
G1 X129.524 Y169.891 E0.01138
G1 X129.925 Y169.974 E0.01284
G1 X130.281 Y170.108 E0.01194
G1 X130.610 Y170.288 E0.01177
G1 X130.891 Y170.497 E0.01096
G1 X131.197 Y170.801 E0.01351
G1 X131.412 Y171.091 E0.01134
G1 X131.586 Y171.407 E0.01133
G1 X131.729 Y171.791 E0.01283
G1 X131.805 Y172.144 E0.01134
G1 X131.833 Y172.505 E0.01136
G1 X131.805 Y172.913 E0.01280
G1 X131.723 Y173.287 E0.01201
G1 X131.596 Y173.627 E0.01138
G1 X131.423 Y173.946 E0.01139
G1 X131.181 Y174.273 E0.01275
G1 X130.909 Y174.545 E0.01204
G1 X130.600 Y174.774 E0.01206
G1 X130.282 Y174.946 E0.01135
G1 X129.921 Y175.082 E0.01209
G1 X129.546 Y175.163 E0.01204
G1 X129.183 Y175.188 E0.01139
G1 X128.800 Y175.163 E0.01205
G1 X128.403 Y175.075 E0.01273
G1 X128.064 Y174.947 E0.01138
G1 X127.726 Y174.763 E0.01207
G1 X127.421 Y174.532 E0.01200
G1 X127.163 Y174.272 E0.01147
G1 X126.945 Y173.983 E0.01135
G1 X126.749 Y173.626 E0.01278
G1 X126.616 Y173.266 E0.01202
G1 X126.535 Y172.891 E0.01204
G1 X126.511 Y172.528 E0.01141
G1 X126.537 Y172.149 E0.01188
G1 X126.622 Y171.769 E0.01221
G1 X126.749 Y171.427 E0.01144
G1 X126.922 Y171.109 E0.01135
G1 X127.164 Y170.781 E0.01279
G1 X127.435 Y170.511 E0.01200
G1 X127.744 Y170.281 E0.01205
G1 X128.063 Y170.108 E0.01138
G1 X128.366 Y169.995 E0.01015
G1 X128.316 Y169.611 F7200.000
G1 F840
G1 X128.747 Y169.518 E0.01383
G1 X129.161 Y169.488 E0.01302
G1 X129.575 Y169.517 E0.01303
G1 X130.030 Y169.611 E0.01455
G1 X130.439 Y169.764 E0.01369
G1 X130.815 Y169.970 E0.01344
G1 X131.137 Y170.211 E0.01262
G1 X131.482 Y170.553 E0.01523
G1 X131.730 Y170.886 E0.01304
G1 X131.930 Y171.250 E0.01300
G1 X132.092 Y171.685 E0.01454
G1 X132.179 Y172.090 E0.01300
G1 X132.211 Y172.504 E0.01302
G1 X132.179 Y172.966 E0.01453
G1 X132.085 Y173.394 E0.01372
G1 X131.940 Y173.783 E0.01303
G1 X131.742 Y174.149 E0.01306
G1 X131.467 Y174.520 E0.01447
G1 X131.156 Y174.831 E0.01378
G1 X130.803 Y175.093 E0.01377
G1 X130.439 Y175.290 E0.01299
G1 X130.028 Y175.445 E0.01378
G1 X129.599 Y175.537 E0.01377
G1 X129.184 Y175.566 E0.01303
G1 X128.746 Y175.537 E0.01374
G1 X128.295 Y175.438 E0.01449
G1 X127.906 Y175.290 E0.01305
G1 X127.521 Y175.080 E0.01376
G1 X127.172 Y174.816 E0.01372
G1 X126.877 Y174.520 E0.01310
G1 X126.628 Y174.188 E0.01301
G1 X126.405 Y173.783 E0.01451
G1 X126.253 Y173.372 E0.01374
G1 X126.161 Y172.943 E0.01374
G1 X126.133 Y172.527 E0.01308
G1 X126.163 Y172.095 E0.01358
G1 X126.259 Y171.662 E0.01391
G1 X126.405 Y171.271 E0.01309
G1 X126.603 Y170.906 E0.01301
G1 X126.878 Y170.534 E0.01451
G1 X127.188 Y170.225 E0.01374
G1 X127.540 Y169.963 E0.01374
G1 X127.906 Y169.764 E0.01305
G1 X128.259 Y169.632 E0.01184
G1 X128.604 Y169.888 F7200.000
G1 F5760
G1 X128.747 Y169.518 E-0.17332
G1 F5760
G1 X129.161 Y169.488 E-0.14383
G1 F5760
G1 X129.575 Y169.517 E-0.14393
G1 F5760
G1 X130.030 Y169.611 E-0.16073
G1 F5760
G1 X130.403 Y169.751 E-0.13819
G1 E-0.04000 F2100.00000
G1 X85.422 Y145.591 F7200.000
G1 E0.80000 F2100.00000
G1 F840
G1 X84.929 Y145.591 E0.01546
G1 X84.931 Y144.906 E0.02148
G1 X85.421 Y144.906 E0.01534
G1 X85.422 Y145.531 E0.01960
G1 F5760
G1 X85.377 Y145.584 E-0.02408
G1 F5760
G1 X84.974 Y145.584 E-0.13956
G1 F5760
G1 X84.929 Y145.591 E-0.01551
G1 F5760
G1 X84.931 Y144.906 E-0.23727
G1 F5760
G1 X85.421 Y144.906 E-0.16950
G1 F5760
G1 X85.422 Y145.409 E-0.17407
G1 E-0.04000 F2100.00000
G1 X85.503 Y144.529 F7200.000
G1 E0.80000 F2100.00000
G1 F840
G1 X85.797 Y144.529 E0.00920
G1 X85.801 Y146.057 E0.04791
G1 X85.684 Y146.017 E0.00387
G1 X85.346 Y145.961 E0.01075
G1 X85.005 Y145.961 E0.01068
G1 X84.668 Y146.017 E0.01069
G1 X84.551 Y146.057 E0.00389
G1 X84.555 Y144.529 E0.04792
G1 X84.848 Y144.529 E0.00919
G1 X84.848 Y141.529 E0.09406
G1 X85.503 Y141.529 E0.02054
G1 X85.503 Y144.469 E0.09218
G1 X85.880 Y144.152 F7200.000
G1 F840
G1 X86.173 Y144.152 E0.00917
G1 X86.178 Y145.973 E0.05711
G1 X86.647 Y146.300 E0.01795
G1 X86.852 Y146.499 E0.00894
G1 X87.033 Y146.727 E0.00912
G1 X87.185 Y146.975 E0.00914
G1 X87.302 Y147.240 E0.00908
G1 X87.384 Y147.518 E0.00909
G1 X87.430 Y147.804 E0.00906
G1 X87.439 Y148.095 E0.00914
G1 X87.412 Y148.382 E0.00904
G1 X87.361 Y148.586 E0.00657
G1 X86.865 Y148.586 E0.01554
G1 X86.865 Y148.013 E0.01795
G1 X86.843 Y147.743 E0.00850
G1 X86.775 Y147.473 E0.00873
G1 X86.663 Y147.217 E0.00876
G1 X86.510 Y146.985 E0.00873
G1 X86.322 Y146.779 E0.00873
G1 X86.100 Y146.607 E0.00880
G1 X85.856 Y146.475 E0.00871
G1 X85.591 Y146.384 E0.00879
G1 X85.315 Y146.338 E0.00879
G1 X85.036 Y146.338 E0.00874
G1 X84.762 Y146.384 E0.00872
G1 X84.497 Y146.475 E0.00879
G1 X84.252 Y146.607 E0.00871
G1 X84.030 Y146.779 E0.00880
G1 X83.843 Y146.984 E0.00871
G1 X83.688 Y147.217 E0.00876
G1 X83.576 Y147.473 E0.00879
G1 X83.508 Y147.743 E0.00873
G1 X83.485 Y148.013 E0.00850
G1 X83.485 Y148.586 E0.01795
G1 X82.990 Y148.586 E0.01552
G1 X82.941 Y148.383 E0.00656
G1 X82.914 Y148.094 E0.00908
G1 X82.921 Y147.804 E0.00912
G1 X82.968 Y147.519 E0.00905
G1 X83.051 Y147.240 E0.00911
G1 X83.168 Y146.975 E0.00908
G1 X83.320 Y146.726 E0.00916
G1 X83.499 Y146.499 E0.00907
G1 X83.705 Y146.301 E0.00897
G1 X84.174 Y145.974 E0.01793
G1 X84.179 Y144.152 E0.05712
G1 X84.471 Y144.152 E0.00916
G1 X84.471 Y141.152 E0.09406
G1 X85.880 Y141.152 E0.04419
G1 X85.880 Y144.092 E0.09218
G1 X85.923 Y144.441 F7200.000
G1 X85.176 Y144.717 F7200.000
G1 F1680
G1 X85.176 Y141.717 E0.05866
G1 F5760
G1 X85.176 Y143.912 E-0.76000
G1 E-0.04000 F2100.00000
G1 X85.176 Y145.095 F7200.000
G1 E0.80000 F2100.00000
G1 F1680
G1 X85.176 Y145.395 E0.00179
G1 F5760
G1 X85.176 Y145.095 E-0.10411
G1 E-0.69589 F2100.00000
G1 X85.990 Y146.207 F7200.000
G1 E0.80000 F2100.00000
G1 F1680
G1 X86.261 Y146.375 E0.00407
G1 X86.522 Y146.575 E0.00419
G1 X86.740 Y146.816 E0.00414
G1 X86.918 Y147.088 E0.00415
G1 X87.043 Y147.373 E0.00396
G1 X87.123 Y147.688 E0.00415
G1 X87.151 Y148.006 E0.00406
G1 X87.141 Y148.310 E0.00388
G1 F1680
G1 X87.215 Y148.391 E0.00092
G1 F5760
G1 X87.141 Y148.310 E-0.03805
G1 E-0.76195 F2100.00000
G1 X84.362 Y146.207 F7200.000
G1 E0.80000 F2100.00000
G1 F1680
G1 X84.092 Y146.375 E0.00436
G1 X83.831 Y146.575 E0.00450
G1 X83.614 Y146.814 E0.00442
G1 X83.434 Y147.087 E0.00448
G1 X83.309 Y147.373 E0.00428
G1 X83.228 Y147.688 E0.00446
G1 X83.201 Y148.006 E0.00436
G1 X83.210 Y148.311 E0.00419
G1 X83.174 Y148.351 E0.00075
G1 F1680
G1 X83.137 Y148.392 E0.00045
G1 F5760
G1 X83.174 Y148.351 E-0.01886
G1 E-0.78114 F2100.00000
G1 X56.913 Y99.122 F7200.000
G1 E0.80000 F2100.00000
G1 F840
G1 X56.916 Y98.867 E0.00799
G1 X57.166 Y98.869 E0.00784
G1 X56.956 Y99.079 E0.00932
G1 X56.532 Y99.647 F7200.000
G1 F840
G1 X56.542 Y98.555 E0.03424
G1 X56.609 Y98.497 E0.00279
G1 X57.807 Y98.497 E0.03757
G1 X57.864 Y98.515 E0.00187
G1 X57.910 Y98.563 E0.00208
G1 X57.910 Y98.657 E0.00294
G1 X54.627 Y101.947 E0.14573
G1 X54.428 Y101.748 E0.00881
G1 X56.489 Y99.690 E0.09133
G1 X56.156 Y99.489 F7200.000
G1 F840
G1 X56.166 Y98.392 E0.03441
G1 X56.428 Y98.154 E0.01110
G1 X56.599 Y98.110 E0.00552
G1 X57.869 Y98.120 E0.03984
G1 X58.070 Y98.186 E0.00662
G1 X58.288 Y98.411 E0.00982
G1 X58.286 Y98.814 E0.01263
G1 X54.627 Y102.481 E0.16242
G1 X53.895 Y101.748 E0.03248
G1 X56.113 Y99.532 E0.09832
G1 X56.530 Y99.349 F7200.000
G1 F5760
G1 X56.166 Y98.392 E-0.39519
G1 F5760
G1 X56.183 Y98.367 E-0.01043
G1 F5760
G1 X56.428 Y98.154 E-0.11252
G1 F5760
G1 X56.599 Y98.110 E-0.06097
G1 F5760
G1 X57.121 Y98.114 E-0.18090
G1 E-0.04000 F2100.00000
G1 X80.541 Y55.767 F7200.000
G1 E0.80000 F2100.00000
G1 F840
G1 X80.541 Y49.159 E0.20721
G1 X78.293 Y49.159 E0.07048
G1 X78.293 Y47.839 E0.04138
G1 X84.212 Y47.839 E0.18561
G1 X84.212 Y58.094 E0.32155
G1 X84.189 Y58.466 E0.01169
G1 X84.118 Y58.803 E0.01080
G1 X84.005 Y59.126 E0.01073
G1 X83.848 Y59.430 E0.01073
G1 X83.650 Y59.713 E0.01082
G1 X83.417 Y59.966 E0.01078
G1 X83.152 Y60.183 E0.01074
G1 X82.861 Y60.364 E0.01075
G1 X82.548 Y60.503 E0.01072
G1 X82.216 Y60.599 E0.01082
G1 X81.875 Y60.649 E0.01083
G1 X81.534 Y60.654 E0.01070
G1 X81.194 Y60.610 E0.01072
G1 X80.861 Y60.522 E0.01082
G1 X80.544 Y60.390 E0.01076
G1 X80.249 Y60.217 E0.01072
G1 X79.978 Y60.004 E0.01081
G1 X79.740 Y59.756 E0.01078
G1 X79.537 Y59.480 E0.01073
G1 X79.373 Y59.176 E0.01082
G1 X79.251 Y58.857 E0.01072
G1 X79.175 Y58.522 E0.01077
G1 X79.145 Y58.180 E0.01076
G1 X79.160 Y57.837 E0.01077
G1 X79.223 Y57.500 E0.01075
G1 X79.331 Y57.172 E0.01083
G1 X79.479 Y56.863 E0.01077
G1 X79.670 Y56.579 E0.01072
G1 X79.898 Y56.320 E0.01080
G1 X80.495 Y55.806 E0.02471
G1 X80.164 Y55.594 F7200.000
G1 F840
G1 X80.164 Y49.536 E0.18996
G1 X77.916 Y49.536 E0.07048
G1 X77.916 Y47.462 E0.06502
G1 X84.589 Y47.462 E0.20925
G1 X84.589 Y58.106 E0.33374
G1 X84.563 Y58.517 E0.01292
G1 X84.482 Y58.905 E0.01241
G1 X84.352 Y59.276 E0.01233
G1 X84.171 Y59.626 E0.01236
G1 X83.944 Y59.950 E0.01240
G1 X83.676 Y60.241 E0.01240
G1 X83.372 Y60.490 E0.01234
G1 X83.037 Y60.698 E0.01235
G1 X82.677 Y60.858 E0.01235
G1 X82.297 Y60.968 E0.01241
G1 X81.905 Y61.026 E0.01242
G1 X81.512 Y61.031 E0.01233
G1 X81.122 Y60.981 E0.01234
G1 X80.739 Y60.880 E0.01240
G1 X80.375 Y60.728 E0.01237
G1 X80.036 Y60.529 E0.01233
G1 X79.725 Y60.284 E0.01241
G1 X79.450 Y60.000 E0.01239
G1 X79.218 Y59.682 E0.01234
G1 X79.029 Y59.334 E0.01242
G1 X78.890 Y58.966 E0.01233
G1 X78.802 Y58.581 E0.01239
G1 X78.767 Y58.188 E0.01236
G1 X78.785 Y57.794 E0.01238
G1 X78.857 Y57.406 E0.01236
G1 X78.980 Y57.031 E0.01240
G1 X79.151 Y56.675 E0.01238
G1 X79.370 Y56.348 E0.01234
G1 X79.632 Y56.051 E0.01239
G1 X80.118 Y55.633 E0.02010
G1 X79.786 Y55.421 F7200.000
G1 F1050
G1 X79.786 Y49.913 E0.17271
G1 X77.538 Y49.913 E0.07048
G1 X77.538 Y47.085 E0.08867
G1 X84.966 Y47.085 E0.23290
G1 X84.966 Y58.118 E0.34594
G1 X84.938 Y58.568 E0.01415
G1 X84.846 Y59.006 E0.01403
G1 X84.699 Y59.425 E0.01393
G1 X84.494 Y59.822 E0.01399
G1 X84.238 Y60.187 E0.01398
G1 X83.936 Y60.516 E0.01401
G1 X83.592 Y60.798 E0.01395
G1 X83.214 Y61.033 E0.01395
G1 X82.806 Y61.213 E0.01397
G1 X82.378 Y61.337 E0.01400
G1 X81.936 Y61.403 E0.01401
G1 X81.490 Y61.409 E0.01396
G1 X81.049 Y61.352 E0.01396
G1 X80.618 Y61.237 E0.01398
G1 X80.206 Y61.066 E0.01398
G1 X79.823 Y60.841 E0.01394
G1 X79.472 Y60.565 E0.01402
G1 X79.161 Y60.243 E0.01400
G1 X78.898 Y59.884 E0.01395
G1 X78.686 Y59.491 E0.01401
G1 X78.528 Y59.076 E0.01393
G1 X78.428 Y58.640 E0.01402
G1 X78.389 Y58.196 E0.01396
G1 X78.410 Y57.751 E0.01398
G1 X78.490 Y57.313 E0.01396
G1 X78.630 Y56.889 E0.01398
G1 X78.823 Y56.487 E0.01399
G1 X79.071 Y56.117 E0.01397
G1 X79.366 Y55.782 E0.01399
G1 X79.741 Y55.460 E0.01549
G1 X80.173 Y55.319 F7200.000
G1 F5760
G1 X79.759 Y53.266 E-0.76000
G1 E-0.04000 F2100.00000
G1 X79.458 Y59.082 F7200.000
G1 E0.80000 F2100.00000
G1 F1680
G1 X80.714 Y60.338 E0.05597
G1 X81.440 Y60.528 F7200.000
G1 F1680
G1 X79.474 Y58.562 E0.08758
G1 X79.428 Y58.174 E0.01232
G1 X79.437 Y57.989 E0.00585
G1 X81.815 Y60.367 E0.10599
G1 X82.156 Y60.322 E0.01084
G1 X82.272 Y60.288 E0.00380
G1 X79.511 Y57.528 E0.12301
G1 X79.593 Y57.278 E0.00828
G1 X79.660 Y57.140 E0.00482
G1 X82.662 Y60.143 E0.13380
G1 X82.999 Y59.943 E0.01232
G1 X79.859 Y56.804 E0.13989
G1 X80.106 Y56.514 E0.01198
G1 X83.284 Y59.693 E0.14163
G1 X83.525 Y59.398 E0.01200
G1 X80.394 Y56.266 E0.13953
G1 X80.682 Y56.019 E0.01197
G1 X83.722 Y59.058 E0.13545
G1 X83.859 Y58.660 E0.01328
G1 X80.823 Y55.624 E0.13526
G1 X80.823 Y55.088 E0.01689
G1 X83.923 Y58.188 E0.13812
G1 X83.929 Y57.659 E0.01668
G1 X80.823 Y54.553 E0.13841
G1 X80.823 Y54.017 E0.01689
G1 X83.929 Y57.123 E0.13841
G1 X83.929 Y56.587 E0.01689
G1 X80.823 Y53.481 E0.13841
G1 X80.823 Y52.945 E0.01689
G1 X83.929 Y56.051 E0.13841
G1 X83.929 Y55.515 E0.01689
G1 X80.823 Y52.409 E0.13841
G1 X80.823 Y51.873 E0.01689
G1 X83.929 Y54.979 E0.13841
G1 X83.929 Y54.443 E0.01689
G1 X80.823 Y51.337 E0.13841
G1 X80.823 Y50.801 E0.01689
G1 X83.929 Y53.907 E0.13841
G1 X83.929 Y53.372 E0.01689
G1 X80.823 Y50.265 E0.13841
G1 X80.823 Y49.730 E0.01689
