; generated by Slic3r 1.31.6-prusa3d-win64 on 2016-12-24 at 12:28:58

; external perimeters extrusion width = 0.45mm
; perimeters extrusion width = 0.45mm
; infill extrusion width = 0.45mm
; solid infill extrusion width = 0.45mm
; top infill extrusion width = 0.45mm

M107
M115 U3.0.9 ; tell printer latest fw version
M83  ; extruder relative mode
M104 S215 ; set extruder temp
M140 S55 ; set bed temp
M190 S55 ; wait for bed temp
M109 S215 ; wait for extruder temp
G28 W ; home all without mesh bed level
G80 ; mesh bed leveling
G1 Y-3.0 F1000.0 ; go outside pritn area
G1 X60.0 E9.0  F1000.0 ; intro line
G1 X100.0 E12.5  F1000.0 ; intro line
G21 ; set units to millimeters
G90 ; use absolute coordinates
M83 ; use relative distances for extrusion
G1 E-0.80000 F2100.00000
G1 Z0.200 F7200.000
G1 X105.738 Y83.103 F7200.000
G1 E0.80000 F2100.00000
M204 S1000
G1 F2100
G1 X106.783 Y82.226 E0.04278
G1 X107.723 Y82.032 E0.03008
G1 X115.573 Y82.032 E0.24613
G1 X116.194 Y82.115 E0.01964
G1 X126.457 Y84.892 E0.33337
G1 X127.193 Y85.235 E0.02546
G1 X133.469 Y89.598 E0.23964
G1 X134.445 Y91.097 E0.05608
G1 X140.577 Y122.677 E1.00867
G1 X140.657 Y123.293 E0.01948
G1 X140.657 Y123.915 E0.01949
G1 X140.578 Y124.531 E0.01949
G1 X140.469 Y124.986 E0.01464
G1 X140.408 Y125.170 E0.00611
G1 X139.604 Y126.273 E0.04278
G1 X138.172 Y126.757 E0.04740
G1 X111.866 Y126.757 E0.82480
G1 X110.559 Y126.366 E0.04278
G1 X109.601 Y125.100 E0.04978
G1 X105.955 Y113.167 E0.39123
G1 X105.852 Y112.521 E0.02051
G1 X105.346 Y87.660 E0.77968
G1 X105.346 Y84.410 E0.10190
G1 X105.721 Y83.160 E0.04090
G1 F5760
G1 X106.783 Y82.226 E-0.49007
G1 F5760
G1 X107.547 Y82.069 E-0.26993
G1 E-0.04000 F2100.00000
G1 X113.973 Y120.491 F7200.000
G1 E0.80000 F2100.00000
G1 F840
G1 X114.461 Y120.491 E0.01532
G1 X114.463 Y121.175 E0.02145
G1 X113.971 Y121.175 E0.01543
G1 X113.972 Y120.551 E0.01957
G1 X114.544 Y120.114 F7200.000
G1 F840
G1 X114.837 Y120.114 E0.00921
G1 X114.841 Y121.641 E0.04788
G1 X114.725 Y121.601 E0.00385
G1 X114.388 Y121.545 E0.01071
G1 X114.046 Y121.545 E0.01072
G1 X113.709 Y121.601 E0.01071
G1 X113.592 Y121.641 E0.00387
G1 X113.597 Y120.114 E0.04788
G1 X113.890 Y120.114 E0.00921
G1 X113.890 Y117.114 E0.09406
G1 X114.544 Y117.114 E0.02048
G1 X114.544 Y120.054 E0.09218
G1 X114.921 Y119.737 F7200.000
G1 F840
G1 X115.213 Y119.737 E0.00918
G1 X115.218 Y121.558 E0.05711
G1 X115.688 Y121.885 E0.01794
G1 X115.893 Y122.084 E0.00899
G1 X116.074 Y122.311 E0.00910
G1 X116.225 Y122.559 E0.00910
G1 X116.342 Y122.825 E0.00910
G1 X116.425 Y123.103 E0.00910
G1 X116.471 Y123.389 E0.00910
G1 X116.480 Y123.680 E0.00910
G1 X116.453 Y123.966 E0.00903
G1 X116.402 Y124.170 E0.00659
G1 X115.907 Y124.170 E0.01552
G1 X115.907 Y123.598 E0.01794
G1 X115.885 Y123.328 E0.00848
G1 X115.816 Y123.058 E0.00875
G1 X115.704 Y122.802 E0.00875
G1 X115.551 Y122.568 E0.00876
G1 X115.362 Y122.363 E0.00875
G1 X115.142 Y122.191 E0.00876
G1 X114.896 Y122.058 E0.00876
G1 X114.632 Y121.968 E0.00876
G1 X114.357 Y121.922 E0.00875
G1 X114.077 Y121.922 E0.00876
G1 X113.802 Y121.968 E0.00875
G1 X113.538 Y122.058 E0.00876
G1 X113.292 Y122.191 E0.00876
G1 X113.072 Y122.363 E0.00875
G1 X112.883 Y122.568 E0.00875
G1 X112.730 Y122.802 E0.00876
G1 X112.618 Y123.058 E0.00876
G1 X112.549 Y123.328 E0.00875
G1 X112.527 Y123.598 E0.00848
G1 X112.527 Y124.170 E0.01794
G1 X112.031 Y124.170 E0.01555
G1 X111.981 Y123.967 E0.00657
G1 X111.954 Y123.680 E0.00905
G1 X111.963 Y123.389 E0.00910
G1 X112.009 Y123.103 E0.00910
G1 X112.092 Y122.825 E0.00910
G1 X112.209 Y122.559 E0.00910
G1 X112.360 Y122.311 E0.00910
G1 X112.541 Y122.084 E0.00910
G1 X112.746 Y121.885 E0.00899
G1 X113.216 Y121.558 E0.01792
G1 X113.220 Y119.737 E0.05711
G1 X113.513 Y119.737 E0.00918
G1 X113.513 Y116.737 E0.09406
G1 X114.921 Y116.737 E0.04413
G1 X114.921 Y119.677 E0.09218
G1 X114.963 Y120.026 F7200.000
G1 X114.217 Y120.302 F7200.000
G1 F1680
G1 X114.217 Y117.302 E0.05818
G1 F5760
G1 X114.217 Y119.497 E-0.76000
G1 E-0.04000 F2100.00000
G1 X114.217 Y120.679 F7200.000
G1 E0.80000 F2100.00000
G1 F1680
G1 X114.217 Y120.979 E0.00176
G1 F5760
G1 X114.217 Y120.679 E-0.10379
G1 E-0.69621 F2100.00000
G1 X115.030 Y121.791 F7200.000
G1 E0.80000 F2100.00000
G1 F1680
G1 X115.302 Y121.960 E0.00407
G1 X115.561 Y122.159 E0.00415
G1 X115.781 Y122.399 E0.00415
G1 X115.959 Y122.673 E0.00415
G1 X116.084 Y122.957 E0.00395
G1 X116.164 Y123.274 E0.00415
G1 X116.192 Y123.590 E0.00404
G1 X116.183 Y123.895 E0.00387
G1 F1680
G1 X116.256 Y123.975 E0.00092
G1 F5760
G1 X116.183 Y123.895 E-0.03784
G1 E-0.76216 F2100.00000
G1 X113.403 Y121.791 F7200.000
G1 E0.80000 F2100.00000
G1 F1680
G1 X113.132 Y121.960 E0.00435
G1 X112.873 Y122.159 E0.00444
G1 X112.653 Y122.399 E0.00444
G1 X112.475 Y122.673 E0.00445
G1 X112.350 Y122.957 E0.00423
G1 X112.270 Y123.274 E0.00445
G1 X112.242 Y123.590 E0.00433
G1 X112.251 Y123.895 E0.00415
G1 X112.214 Y123.935 E0.00075
G1 F1680
G1 X112.178 Y123.976 E0.00046
G1 F5760
G1 X112.214 Y123.935 E-0.01898
G1 E-0.78102 F2100.00000
G1 X122.210 Y120.120 F7200.000
G1 E0.80000 F2100.00000
G1 F840
G1 X122.090 Y119.673 E0.01452
G1 X122.051 Y119.205 E0.01472
G1 X122.090 Y118.753 E0.01424
G1 X122.210 Y118.306 E0.01449
G1 X122.405 Y117.887 E0.01449
G1 X122.670 Y117.509 E0.01449
G1 X122.997 Y117.182 E0.01449
G1 X123.376 Y116.917 E0.01449
G1 X123.796 Y116.721 E0.01452
G1 X124.249 Y116.601 E0.01471
G1 X124.702 Y116.562 E0.01424
G1 X125.162 Y116.602 E0.01449
G1 X125.609 Y116.721 E0.01449
G1 X126.028 Y116.917 E0.01449
G1 X126.406 Y117.182 E0.01449
G1 X126.733 Y117.509 E0.01449
G1 X126.998 Y117.887 E0.01449
G1 X127.194 Y118.306 E0.01449
G1 X127.313 Y118.753 E0.01449
G1 X127.354 Y119.213 E0.01449
G1 X127.313 Y119.674 E0.01449
G1 X127.193 Y120.121 E0.01452
G1 X126.994 Y120.546 E0.01472
G1 X126.733 Y120.918 E0.01424
G1 X126.406 Y121.245 E0.01449
G1 X126.028 Y121.510 E0.01449
G1 X125.609 Y121.705 E0.01449
G1 X125.162 Y121.825 E0.01449
G1 X124.701 Y121.865 E0.01453
G1 X124.233 Y121.823 E0.01472
G1 X123.795 Y121.705 E0.01424
G1 X123.376 Y121.510 E0.01449
G1 X122.997 Y121.245 E0.01449
G1 X122.670 Y120.918 E0.01449
G1 X122.405 Y120.539 E0.01450
G1 X122.235 Y120.175 E0.01261
G1 X122.566 Y119.991 F7200.000
G1 F840
G1 X122.463 Y119.608 E0.01243
G1 X122.429 Y119.206 E0.01265
G1 X122.463 Y118.819 E0.01219
G1 X122.566 Y118.436 E0.01243
G1 X122.733 Y118.077 E0.01242
G1 X122.960 Y117.752 E0.01243
G1 X123.241 Y117.472 E0.01242
G1 X123.565 Y117.245 E0.01242
G1 X123.925 Y117.077 E0.01244
G1 X124.315 Y116.974 E0.01265
G1 X124.702 Y116.940 E0.01219
G1 X125.097 Y116.975 E0.01242
G1 X125.479 Y117.077 E0.01242
G1 X125.838 Y117.245 E0.01242
G1 X126.163 Y117.472 E0.01242
G1 X126.443 Y117.752 E0.01242
G1 X126.671 Y118.077 E0.01243
G1 X126.838 Y118.436 E0.01242
G1 X126.941 Y118.819 E0.01243
G1 X126.975 Y119.213 E0.01242
G1 X126.941 Y119.608 E0.01242
G1 X126.838 Y119.991 E0.01243
G1 X126.666 Y120.356 E0.01265
G1 X126.443 Y120.675 E0.01219
G1 X126.163 Y120.955 E0.01242
G1 X125.838 Y121.182 E0.01242
G1 X125.479 Y121.350 E0.01243
G1 X125.097 Y121.452 E0.01242
G1 X124.701 Y121.487 E0.01244
G1 X124.300 Y121.450 E0.01265
G1 X123.924 Y121.350 E0.01219
G1 X123.565 Y121.182 E0.01242
G1 X123.241 Y120.955 E0.01242
G1 X122.960 Y120.675 E0.01242
G1 X122.733 Y120.350 E0.01243
G1 X122.591 Y120.045 E0.01054
G1 X122.175 Y119.922 F7200.000
G1 X122.288 Y120.333 F7200.000
G1 F840
G1 X122.145 Y119.951 E0.01280
G1 X122.068 Y119.597 E0.01135
G1 X122.041 Y119.235 E0.01138
G1 X122.069 Y118.829 E0.01277
G1 X122.151 Y118.454 E0.01203
G1 X122.278 Y118.114 E0.01138
G1 X122.451 Y117.795 E0.01138
G1 X122.693 Y117.467 E0.01277
G1 X122.965 Y117.197 E0.01202
G1 X123.256 Y116.979 E0.01138
G1 X123.574 Y116.804 E0.01139
G1 X123.955 Y116.659 E0.01277
G1 X124.329 Y116.578 E0.01202
G1 X124.691 Y116.552 E0.01138
G1 X125.054 Y116.577 E0.01139
G1 X125.453 Y116.660 E0.01278
G1 X125.810 Y116.794 E0.01198
G1 X126.148 Y116.979 E0.01208
G1 X126.437 Y117.196 E0.01133
G1 X126.725 Y117.485 E0.01280
G1 X126.942 Y117.776 E0.01137
G1 X127.116 Y118.094 E0.01136
G1 X127.259 Y118.476 E0.01280
G1 X127.335 Y118.830 E0.01135
G1 X127.362 Y119.192 E0.01138
G1 X127.335 Y119.598 E0.01277
G1 X127.252 Y119.973 E0.01203
G1 X127.125 Y120.313 E0.01138
G1 X126.952 Y120.632 E0.01138
G1 X126.710 Y120.959 E0.01277
G1 X126.438 Y121.230 E0.01202
G1 X126.148 Y121.448 E0.01138
G1 X125.830 Y121.623 E0.01139
G1 X125.449 Y121.768 E0.01277
G1 X125.074 Y121.849 E0.01202
G1 X124.713 Y121.875 E0.01137
G1 X124.330 Y121.848 E0.01203
G1 X123.932 Y121.760 E0.01277
G1 X123.593 Y121.633 E0.01137
G1 X123.274 Y121.459 E0.01139
G1 X122.965 Y121.230 E0.01204
G1 X122.678 Y120.941 E0.01276
G1 X122.462 Y120.651 E0.01137
G1 X122.317 Y120.386 E0.00948
G1 X121.944 Y120.490 F7200.000
G1 F840
G1 X121.782 Y120.057 E0.01450
G1 X121.694 Y119.651 E0.01303
G1 X121.663 Y119.236 E0.01304
G1 X121.694 Y118.775 E0.01449
G1 X121.789 Y118.347 E0.01375
G1 X121.934 Y117.957 E0.01304
G1 X122.132 Y117.592 E0.01304
G1 X122.407 Y117.220 E0.01449
G1 X122.718 Y116.911 E0.01375
G1 X123.051 Y116.662 E0.01304
G1 X123.415 Y116.461 E0.01304
G1 X123.847 Y116.297 E0.01449
G1 X124.276 Y116.204 E0.01375
G1 X124.690 Y116.174 E0.01304
G1 X125.105 Y116.202 E0.01304
G1 X125.558 Y116.297 E0.01449
G1 X125.968 Y116.450 E0.01373
G1 X126.353 Y116.662 E0.01377
G1 X126.685 Y116.911 E0.01302
G1 X127.011 Y117.239 E0.01450
G1 X127.260 Y117.572 E0.01303
G1 X127.460 Y117.936 E0.01303
G1 X127.621 Y118.370 E0.01450
G1 X127.710 Y118.776 E0.01303
G1 X127.740 Y119.190 E0.01304
G1 X127.709 Y119.651 E0.01449
G1 X127.615 Y120.080 E0.01375
G1 X127.470 Y120.469 E0.01304
G1 X127.271 Y120.835 E0.01304
G1 X126.996 Y121.206 E0.01449
G1 X126.686 Y121.516 E0.01375
G1 X126.353 Y121.765 E0.01304
G1 X125.988 Y121.966 E0.01304
G1 X125.557 Y122.130 E0.01449
G1 X125.128 Y122.223 E0.01375
G1 X124.713 Y122.253 E0.01304
G1 X124.276 Y122.223 E0.01375
G1 X123.825 Y122.123 E0.01449
G1 X123.435 Y121.976 E0.01304
G1 X123.070 Y121.777 E0.01304
G1 X122.718 Y121.516 E0.01375
G1 X122.392 Y121.188 E0.01449
G1 X122.144 Y120.855 E0.01303
G1 X121.973 Y120.543 E0.01115
G1 X122.176 Y120.164 F7200.000
G1 F5760
G1 X121.782 Y120.057 E-0.18078
G1 F5760
G1 X121.694 Y119.651 E-0.14391
G1 F5760
G1 X121.663 Y119.236 E-0.14401
G1 F5760
G1 X121.694 Y118.775 E-0.16007
G1 F5760
G1 X121.776 Y118.405 E-0.13122
G1 E-0.04000 F2100.00000
G1 X135.573 Y120.580 F7200.000
G1 E0.80000 F2100.00000
G1 F840
G1 X135.573 Y120.491 E0.00279
G1 X136.061 Y120.491 E0.01532
G1 X136.063 Y121.175 E0.02145
G1 X135.571 Y121.175 E0.01543
G1 X135.572 Y120.640 E0.01677
G1 X136.144 Y120.114 F7200.000
G1 F840
G1 X136.437 Y120.114 E0.00921
G1 X136.441 Y121.641 E0.04788
G1 X136.325 Y121.601 E0.00385
G1 X135.995 Y121.546 E0.01050
G1 X135.647 Y121.544 E0.01089
G1 X135.309 Y121.601 E0.01075
G1 X135.193 Y121.641 E0.00387
G1 X135.197 Y120.114 E0.04788
G1 X135.491 Y120.114 E0.00921
G1 X135.491 Y117.114 E0.09406
G1 X136.144 Y117.114 E0.02048
G1 X136.144 Y120.054 E0.09218
G1 X136.521 Y119.737 F7200.000
G1 F840
G1 X136.814 Y119.737 E0.00918
G1 X136.818 Y121.558 E0.05711
G1 X137.288 Y121.885 E0.01794
G1 X137.494 Y122.084 E0.00899
G1 X137.675 Y122.311 E0.00910
G1 X137.825 Y122.559 E0.00910
G1 X137.940 Y122.818 E0.00888
G1 X138.025 Y123.103 E0.00933
G1 X138.071 Y123.389 E0.00909
G1 X138.081 Y123.680 E0.00910
G1 X138.053 Y123.966 E0.00903
G1 X138.002 Y124.170 E0.00659
G1 X137.507 Y124.170 E0.01552
G1 X137.507 Y123.598 E0.01794
G1 X137.485 Y123.328 E0.00848
G1 X137.416 Y123.058 E0.00875
G1 X137.304 Y122.802 E0.00876
G1 X137.151 Y122.568 E0.00876
G1 X136.962 Y122.363 E0.00875
G1 X136.747 Y122.195 E0.00856
G1 X136.497 Y122.059 E0.00893
G1 X136.232 Y121.968 E0.00877
G1 X135.963 Y121.923 E0.00856
G1 X135.678 Y121.922 E0.00893
G1 X135.402 Y121.968 E0.00877
G1 X135.138 Y122.058 E0.00876
G1 X134.892 Y122.191 E0.00876
G1 X134.672 Y122.363 E0.00875
G1 X134.483 Y122.568 E0.00875
G1 X134.330 Y122.802 E0.00876
G1 X134.218 Y123.058 E0.00876
G1 X134.150 Y123.328 E0.00875
G1 X134.127 Y123.598 E0.00848
G1 X134.127 Y124.170 E0.01794
G1 X133.631 Y124.170 E0.01555
G1 X133.582 Y123.967 E0.00657
G1 X133.554 Y123.680 E0.00905
G1 X133.563 Y123.389 E0.00910
G1 X133.609 Y123.103 E0.00910
G1 X133.692 Y122.825 E0.00910
G1 X133.809 Y122.559 E0.00910
G1 X133.956 Y122.317 E0.00888
G1 X134.141 Y122.084 E0.00933
G1 X134.347 Y121.885 E0.00898
G1 X134.816 Y121.558 E0.01792
G1 X134.821 Y119.737 E0.05711
G1 X135.114 Y119.737 E0.00918
G1 X135.114 Y116.737 E0.09406
G1 X136.521 Y116.737 E0.04413
G1 X136.521 Y119.677 E0.09218
G1 X136.564 Y120.026 F7200.000
G1 X135.817 Y120.302 F7200.000
G1 F1680
G1 X135.817 Y117.302 E0.05817
G1 F5760
G1 X135.817 Y119.497 E-0.76000
G1 E-0.04000 F2100.00000
G1 X135.817 Y120.679 F7200.000
G1 E0.80000 F2100.00000
G1 F1680
G1 X135.817 Y120.980 E0.00176
G1 F5760
G1 X135.817 Y120.679 E-0.10394
G1 E-0.69606 F2100.00000
G1 X136.630 Y121.791 F7200.000
G1 E0.80000 F2100.00000
G1 F1680
G1 X136.908 Y121.963 E0.00416
G1 X137.161 Y122.159 E0.00407
G1 X137.381 Y122.399 E0.00415
G1 X137.560 Y122.673 E0.00415
G1 X137.684 Y122.958 E0.00395
G1 X137.764 Y123.274 E0.00415
G1 X137.792 Y123.590 E0.00404
G1 X137.783 Y123.895 E0.00387
G1 F1680
G1 X137.856 Y123.975 E0.00092
G1 F5760
G1 X137.783 Y123.895 E-0.03784
G1 E-0.76216 F2100.00000
G1 X135.004 Y121.791 F7200.000
G1 E0.80000 F2100.00000
G1 F1680
G1 X134.732 Y121.960 E0.00435
G1 X134.473 Y122.159 E0.00444
G1 X134.254 Y122.400 E0.00444
G1 X134.075 Y122.673 E0.00445
G1 X133.950 Y122.957 E0.00423
G1 X133.870 Y123.274 E0.00445
G1 X133.842 Y123.590 E0.00433
G1 X133.852 Y123.895 E0.00415
G1 X133.815 Y123.935 E0.00075
G1 F1680
G1 X133.778 Y123.976 E0.00046
G1 F5760
G1 X133.815 Y123.935 E-0.01898
G1 E-0.78102 F2100.00000
G1 X124.153 Y107.780 F7200.000
G1 E0.80000 F2100.00000
G1 F840
G1 X123.477 Y107.839 E0.02127
G1 X119.989 Y107.839 E0.10939
G1 X119.989 Y107.638 E0.00630
G1 X119.771 Y107.638 E0.00683
G1 X119.771 Y107.860 E0.00695
G1 X118.869 Y107.829 E0.02829
G1 X118.643 Y107.768 E0.00733
G1 X118.333 Y107.589 E0.01122
G1 X118.105 Y107.317 E0.01113
G1 X118.003 Y107.099 E0.00756
G1 X117.951 Y106.804 E0.00940
G1 X117.951 Y102.851 E0.12394
G1 X118.003 Y102.555 E0.00941
G1 X118.105 Y102.337 E0.00756
G1 X118.334 Y102.065 E0.01114
G1 X118.666 Y101.873 E0.01204
G1 X118.995 Y101.815 E0.01045
G1 X123.503 Y101.815 E0.14136
G1 X123.827 Y101.872 E0.01030
G1 X124.156 Y102.063 E0.01194
G1 X124.384 Y102.334 E0.01111
G1 X124.486 Y102.553 E0.00758
G1 X124.539 Y102.851 E0.00948
G1 X124.539 Y106.803 E0.12393
G1 X124.483 Y107.122 E0.01015
G1 X124.196 Y107.638 E0.01851
G1 X124.153 Y107.638 E0.00133
G1 X124.153 Y107.720 E0.00257
G1 X123.776 Y107.435 F7200.000
G1 F840
G1 X123.461 Y107.462 E0.00992
G1 X122.963 Y107.462 E0.01562
G1 X122.963 Y107.261 E0.00630
G1 X122.376 Y107.261 E0.01839
G1 X122.376 Y107.462 E0.00630
G1 X120.366 Y107.462 E0.06304
G1 X120.366 Y107.261 E0.00630
G1 X119.394 Y107.261 E0.03047
G1 X119.394 Y107.470 E0.00653
G1 X118.925 Y107.453 E0.01471
G1 X118.789 Y107.417 E0.00443
G1 X118.579 Y107.296 E0.00758
G1 X118.426 Y107.113 E0.00749
G1 X118.366 Y106.984 E0.00445
G1 X118.328 Y106.771 E0.00681
G1 X118.328 Y102.884 E0.12187
G1 X118.366 Y102.670 E0.00682
G1 X118.426 Y102.541 E0.00445
G1 X118.580 Y102.358 E0.00750
G1 X118.797 Y102.233 E0.00787
G1 X119.028 Y102.192 E0.00733
G1 X123.470 Y102.192 E0.13929
G1 X123.696 Y102.232 E0.00718
G1 X123.910 Y102.356 E0.00777
G1 X124.063 Y102.538 E0.00747
G1 X124.124 Y102.668 E0.00447
G1 X124.162 Y102.884 E0.00689
G1 X124.162 Y106.771 E0.12186
G1 X124.122 Y106.994 E0.00713
G1 X123.974 Y107.261 E0.00957
G1 X123.776 Y107.261 E0.00620
G1 X123.776 Y107.375 E0.00356
G1 X123.706 Y107.743 F7200.000
G1 X124.544 Y107.788 F7200.000
G1 F840
G1 X124.703 Y107.502 E0.01026
G1 X124.797 Y107.666 E0.00592
G1 X124.920 Y107.788 E0.00543
G1 X124.604 Y107.788 E0.00990
G1 F5760
G1 X124.703 Y107.502 E-0.10479
G1 F5760
G1 X124.797 Y107.666 E-0.06539
G1 F5760
G1 X124.920 Y107.788 E-0.05996
G1 F5760
G1 X124.604 Y107.788 E-0.10938
G1 E-0.46048 F2100.00000
G1 X124.702 Y102.126 F7200.000
G1 E0.80000 F2100.00000
G1 F840
G1 X124.484 Y101.866 E0.01062
G1 X124.920 Y101.866 E0.01366
G1 X124.740 Y102.080 E0.00874
